app/images/icon-nav-settings-hover.svg

<svg height="42" viewBox="0 0 36 42" width="36" xmlns="http://www.w3.org/2000/svg"><g fill="none" fill-rule="evenodd" transform="translate(9 14)"><path d="m18.3095238 10.9761905v-3.5714286h-2.6339286c-.1398809-.49404761-.3333333-.96488095-.5791666-1.40416666l1.8607143-1.86071429-2.5255953-2.52559524-1.8607143 1.86071429c-.4392857-.24583333-.910119-.43928571-1.4041666-.57916667v-2.63392857h-3.5714286v2.63392857c-.49404762.13988096-.96488096.33333334-1.40416667.57916667l-1.86071429-1.86071429-2.52559524 2.52559524 1.86071429 1.86071429c-.24583333.43928571-.43928571.91011905-.57916667 1.40416666h-2.63392857v3.5714286h2.63392857c.13988096.4940476.33333334.9648809.57916667 1.4041666l-1.86071429 1.8607143 2.52559524 2.5255953 1.86071429-1.8607143c.43928571.2458333.91011905.4392857 1.40416667.5791666v2.6339286h3.5714286v-2.6339286c.4940476-.1398809.9648809-.3333333 1.4041666-.5791666l1.8607143 1.8607143 2.5255953-2.5255953-1.8607143-1.8607143c.2458333-.4392857.4392857-.910119.5791666-1.4041666z" fill="#2c96ff" stroke="#2c96ff" stroke-linecap="round" stroke-linejoin="round" stroke-width="1.190476"/><path d="m7 9.19047619c0-1.31488095 1.06607143-2.38095238 2.38095238-2.38095238 1.31488092 0 2.38095242 1.06607143 2.38095242 2.38095238 0 1.31488091-1.0660715 2.38095241-2.38095242 2.38095241-1.31488095 0-2.38095238-1.0660715-2.38095238-2.38095241z" fill="#fafafa" fill-rule="evenodd"/><path d="m7.5952381 9.19047619c0 .98614001.79957425 1.78571431 1.78571428 1.78571431.98614002 0 1.78571432-.7995743 1.78571432-1.78571431 0-.98614003-.7995743-1.78571429-1.78571432-1.78571429-.98614003 0-1.78571428.79957426-1.78571428 1.78571429z" stroke="#fafafa" stroke-width="1.190476"/></g></svg>

<?xml version="1.0" encoding="UTF-8"?>
<svg width="36px" height="42px" viewBox="0 0 36 42" version="1.1" xmlns="http://www.w3.org/2000/svg" xmlns:xlink="http://www.w3.org/1999/xlink">
    <!-- Generator: Sketch 47.1 (45422) - http://www.bohemiancoding.com/sketch -->
    <title>icon-nav-settings-hover</title>
    <desc>Created with Sketch.</desc>
    <defs>
        <path d="M7,9.19047619 C7,7.87559524 8.06607143,6.80952381 9.38095238,6.80952381 C10.6958333,6.80952381 11.7619048,7.87559524 11.7619048,9.19047619 C11.7619048,10.5053571 10.6958333,11.5714286 9.38095238,11.5714286 C8.06607143,11.5714286 7,10.5053571 7,9.19047619 L7,9.19047619 Z" id="path-1"></path>
    </defs>
    <g id="Symbols" stroke="none" stroke-width="1" fill="none" fill-rule="evenodd">
        <g id="browser-macOS-40a-profile-verified-d18" transform="translate(-348.000000, -46.000000)">
            <g id="navbar-w352px-top0" transform="translate(58.000000, 34.000000)">
                <g id="settings:hover" transform="translate(264.000000, 0.000000)">
                    <g id="settings" transform="translate(35.000000, 26.000000)">
                        <path d="M18.3095238,10.9761905 L18.3095238,7.4047619 L15.6755952,7.4047619 C15.5357143,6.91071429 15.3422619,6.43988095 15.0964286,6.00059524 L16.9571429,4.13988095 L14.4315476,1.61428571 L12.5708333,3.475 C12.1315476,3.22916667 11.6607143,3.03571429 11.1666667,2.89583333 L11.1666667,0.261904762 L7.5952381,0.261904762 L7.5952381,2.89583333 C7.10119048,3.03571429 6.63035714,3.22916667 6.19107143,3.475 L4.33035714,1.61428571 L1.8047619,4.13988095 L3.66547619,6.00059524 C3.41964286,6.43988095 3.22619048,6.91071429 3.08630952,7.4047619 L0.452380952,7.4047619 L0.452380952,10.9761905 L3.08630952,10.9761905 C3.22619048,11.4702381 3.41964286,11.9410714 3.66547619,12.3803571 L1.8047619,14.2410714 L4.33035714,16.7666667 L6.19107143,14.9059524 C6.63035714,15.1517857 7.10119048,15.3452381 7.5952381,15.485119 L7.5952381,18.1190476 L11.1666667,18.1190476 L11.1666667,15.485119 C11.6607143,15.3452381 12.1315476,15.1517857 12.5708333,14.9059524 L14.4315476,16.7666667 L16.9571429,14.2410714 L15.0964286,12.3803571 C15.3422619,11.9410714 15.5357143,11.4702381 15.6755952,10.9761905 L18.3095238,10.9761905 L18.3095238,10.9761905 Z" id="Stroke-5622" stroke="#2C96FF" stroke-width="1.19047619" fill="#2C96FF" stroke-linecap="round" stroke-linejoin="round"></path>
                        <g id="Stroke-5617">
                            <use fill="#FAFAFA" fill-rule="evenodd" xlink:href="#path-1"></use>
                            <path stroke="#FAFAFA" stroke-width="1.19047619" d="M7.5952381,9.19047619 C7.5952381,10.1766162 8.39481235,10.9761905 9.38095238,10.9761905 C10.3670924,10.9761905 11.1666667,10.1766162 11.1666667,9.19047619 C11.1666667,8.20433616 10.3670924,7.4047619 9.38095238,7.4047619 C8.39481235,7.4047619 7.5952381,8.20433616 7.5952381,9.19047619 Z"></path>
                        </g>
                    </g>
                </g>
            </g>
        </g>
    </g>
</svg>
